img/image/catalogue-value4.svg

<svg width="17" height="16" viewBox="0 0 17 16" fill="none" xmlns="http://www.w3.org/2000/svg">
<g clip-path="url(#clip0_1101_14736)">
<g opacity="0.6">
<path d="M2.90203 4.29291H1.65984C1.49391 4.29291 1.35938 4.15838 1.35938 3.99244V0.534844C1.35938 0.368906 1.49391 0.234375 1.65984 0.234375H2.90203C3.06797 0.234375 3.2025 0.368906 3.2025 0.534844V3.99247C3.20247 4.15838 3.06797 4.29291 2.90203 4.29291Z" stroke="#D9D9D9" stroke-width="0.5" stroke-miterlimit="10" stroke-linecap="round" stroke-linejoin="round"/>
<path d="M6.95822 1.88175H3.99059V2.6455H6.98259M1.35938 0.773969L1.74525 0.945969M1.35938 1.70975L1.74525 1.88175M1.35938 2.6455L1.74525 2.81753M1.35938 3.58128L1.74525 3.75331M3.20247 0.773969L2.81659 0.945969M3.20247 1.70975L2.81659 1.88175M3.20247 2.6455L2.81659 2.81753M3.20247 3.58128L2.81659 3.75331M3.20247 1.47922H3.99059V3.04803H3.20247V1.47922ZM14.098 4.29291H15.3402C15.5061 4.29291 15.6406 4.15838 15.6406 3.99244V0.534844C15.6406 0.368906 15.5061 0.234375 15.3402 0.234375H14.098C13.932 0.234375 13.7975 0.368906 13.7975 0.534844V3.99247C13.7975 4.15838 13.932 4.29291 14.098 4.29291Z" stroke="#D9D9D9" stroke-width="0.5" stroke-miterlimit="10" stroke-linecap="round" stroke-linejoin="round"/>
<path d="M13.7975 3.04797H13.0093V1.47916H13.7975V3.04797Z" stroke="#D9D9D9" stroke-width="0.5" stroke-miterlimit="10" stroke-linecap="round" stroke-linejoin="round"/>
<path d="M10.0322 1.88171H13.0094V2.64546H10.0322M15.6406 0.773926L15.2548 0.945926M15.6406 1.70971L15.2548 1.88171M15.6406 2.64546L15.2548 2.81749M15.6406 3.58124L15.2548 3.75327M13.7975 0.773926L14.1834 0.945926M13.7975 1.70971L14.1834 1.88171M13.7975 2.64546L14.1834 2.81749M13.7975 3.58124L14.1834 3.75327M2.90203 15.7656H1.65984C1.49391 15.7656 1.35938 15.6311 1.35938 15.4651V12.0075C1.35938 11.8416 1.49391 11.7071 1.65984 11.7071H2.90203C3.06797 11.7071 3.2025 11.8416 3.2025 12.0075V15.4651C3.20247 15.6311 3.06797 15.7656 2.90203 15.7656Z" stroke="#D9D9D9" stroke-width="0.5" stroke-miterlimit="10" stroke-linecap="round" stroke-linejoin="round"/>
<path d="M1.35938 12.2467L1.74525 12.4187M1.35938 13.1825L1.74525 13.3545M1.35938 14.1183L1.74525 14.2903M1.35938 15.0541L1.74525 15.2261M3.20247 12.2467L2.81659 12.4187M3.20247 13.1825L2.81659 13.3545M3.20247 14.1183L2.81659 14.2903M3.20247 15.0541L2.81659 15.2261M3.20247 12.952H3.99059V14.5208H3.20247V12.952ZM14.098 15.7657H15.3402C15.5061 15.7657 15.6406 15.6312 15.6406 15.4652V12.0076C15.6406 11.8417 15.5061 11.7072 15.3402 11.7072H14.098C13.932 11.7072 13.7975 11.8417 13.7975 12.0076V15.4652C13.7975 15.6312 13.932 15.7657 14.098 15.7657Z" stroke="#D9D9D9" stroke-width="0.5" stroke-miterlimit="10" stroke-linecap="round" stroke-linejoin="round"/>
<path d="M13.7975 14.5208H13.0093V12.9519H13.7975V14.5208Z" stroke="#D9D9D9" stroke-width="0.5" stroke-miterlimit="10" stroke-linecap="round" stroke-linejoin="round"/>
<path d="M15.6406 12.2467L15.2548 12.4187M15.6406 13.1825L15.2548 13.3545M15.6406 14.1183L15.2548 14.2903M15.6406 15.0541L15.2548 15.2261M13.7975 12.2467L14.1834 12.4187M13.7975 13.1825L14.1834 13.3545M13.7975 14.1183L14.1834 14.2903M13.7975 15.0541L14.1834 15.2261M8.98976 10.3865V13.3545H8.01026V10.3865M8.01026 6.31313V3.37657H8.98976V6.31313M8.32454 8.36554H8.67548M8.32454 9.11013H8.67548M8.28841 2.03716H8.7116M11.5719 14.1183H13.0094V13.3545H3.9906V14.1183H10.6656M7.25682 9.0075V10.0789C7.25682 10.1491 7.2847 10.2164 7.33432 10.266C7.38394 10.3156 7.45124 10.3435 7.52141 10.3435H9.47863C9.54881 10.3435 9.61611 10.3156 9.66573 10.266C9.71535 10.2164 9.74323 10.1491 9.74323 10.0789V7.71107C9.74323 7.63685 9.71207 7.56607 9.65732 7.51594L9.48785 7.36075C9.46078 7.33597 9.43917 7.30582 9.42438 7.27223C9.40959 7.23863 9.40195 7.20233 9.40194 7.16563V6.65219C9.40194 6.58202 9.37407 6.51472 9.32445 6.4651C9.27483 6.41547 9.20753 6.3876 9.13735 6.3876H7.86263C7.82789 6.3876 7.79348 6.39444 7.76138 6.40774C7.72927 6.42104 7.70011 6.44053 7.67554 6.4651C7.65097 6.48967 7.63148 6.51883 7.61818 6.55094C7.60488 6.58304 7.59804 6.61744 7.59804 6.65219V7.16563C7.59804 7.23985 7.56688 7.31063 7.51213 7.36075L7.34266 7.51594C7.3156 7.54073 7.29398 7.57088 7.27919 7.60447C7.2644 7.63806 7.25676 7.67436 7.25676 7.71107V8.10125M8.04688 0.697754H7.67629C7.6039 0.697753 7.53326 0.719937 7.47387 0.761317C7.41448 0.802698 7.3692 0.861287 7.34413 0.929191L7.03835 1.75738C7.02386 1.79664 7.01644 1.83816 7.01644 1.88V3.02247C7.01644 3.21804 7.17498 3.37654 7.37054 3.37654H9.62954C9.8251 3.37654 9.9836 3.218 9.9836 3.02247V1.88004C9.9836 1.83819 9.97619 1.79666 9.96169 1.75741L9.65591 0.929223C9.63084 0.861318 9.58557 0.802729 9.52618 0.761349C9.46679 0.719968 9.39614 0.697784 9.32376 0.697785H8.95313" stroke="#D9D9D9" stroke-width="0.5" stroke-miterlimit="10" stroke-linecap="round" stroke-linejoin="round"/>
</g>
</g>
<defs>
<clipPath id="clip0_1101_14736">
<rect width="16" height="16" fill="white" transform="translate(0.5)"/>
</clipPath>
</defs>
</svg>

<svg width="17" height="16" fill="none" xmlns="http://www.w3.org/2000/svg"><g opacity=".6" stroke="#D9D9D9" stroke-width=".5" stroke-miterlimit="10" stroke-linecap="round" stroke-linejoin="round" clip-path="url(#a)"><path d="M2.902 4.293H1.66a.3.3 0 0 1-.3-.3V.534a.3.3 0 0 1 .3-.3h1.242a.3.3 0 0 1 .3.3v3.457a.3.3 0 0 1-.3.3Z"/><path d="M6.958 1.882H3.991v.764h2.992M1.359.774l.386.172m-.386.764.386.172m-.386.764.386.172m-.386.763.386.172M3.202.774l-.385.172m.385.764-.385.172m.385.764-.385.172m.385.763-.385.172m.385-2.274h.789v1.569h-.789V1.479Zm10.896 2.814h1.242a.3.3 0 0 0 .3-.3V.534a.3.3 0 0 0-.3-.3h-1.242a.3.3 0 0 0-.3.3v3.457a.3.3 0 0 0 .3.3ZM13.797 3.048h-.788V1.479h.788v1.569Z"/><path d="M10.032 1.882h2.977v.763h-2.977M15.641.774l-.386.172m.386.764-.386.172m.386.763-.386.172m.386.764-.386.172M13.797.773l.386.173m-.386.764.386.172m-.386.763.386.172m-.386.764.386.172M2.902 15.766H1.66a.3.3 0 0 1-.3-.3v-3.458a.3.3 0 0 1 .3-.3h1.242a.3.3 0 0 1 .3.3v3.457a.3.3 0 0 1-.3.3Z"/><path d="m1.36 12.247.385.172m-.386.763.386.172m-.386.764.386.172m-.386.764.386.172m1.457-2.98-.385.173m.385.763-.385.172m.385.764-.385.172m.385.764-.385.172m.385-2.274h.789v1.569h-.789v-1.569Zm10.896 2.814h1.242a.3.3 0 0 0 .3-.3v-3.458a.3.3 0 0 0-.3-.3h-1.242a.3.3 0 0 0-.3.3v3.457a.3.3 0 0 0 .3.3ZM13.797 14.52h-.788v-1.568h.788v1.569Z"/><path d="m15.64 12.247-.385.172m.386.763-.386.172m.386.764-.386.172m.386.764-.386.172m-1.458-2.98.386.173m-.386.763.386.172m-.386.764.386.172m-.386.764.386.172m-5.193-4.84v2.969h-.98v-2.969m0-4.073V3.377h.98v2.936m-.665 2.053h.35m-.35.744h.35m-.387-7.073h.424m2.86 12.081h1.437v-.764H3.991v.764h6.675m-3.41-5.11v1.07a.265.265 0 0 0 .265.266H9.48a.265.265 0 0 0 .264-.265V7.71a.265.265 0 0 0-.086-.195l-.17-.155a.265.265 0 0 1-.085-.195v-.514a.265.265 0 0 0-.265-.264H7.863a.265.265 0 0 0-.265.264v.514a.264.264 0 0 1-.086.195l-.17.155a.265.265 0 0 0-.085.195v.39m.79-7.403h-.37a.354.354 0 0 0-.333.231l-.306.828a.354.354 0 0 0-.022.123v1.142c0 .196.159.355.355.355H9.63a.354.354 0 0 0 .354-.355V1.88a.354.354 0 0 0-.022-.123L9.656.93a.354.354 0 0 0-.332-.231h-.37"/></g><defs><clipPath id="a"><path fill="#fff" transform="translate(.5)" d="M0 0h16v16H0z"/></clipPath></defs></svg>
